Adwaita++/status/24/keybase-update.svg

<svg height="24" width="24" xmlns="http://www.w3.org/2000/svg">
  <path d="m10.337491 4c-.04614 0-.3480001.5097587-.6347656 1.0722656-.4197997.8234637-.6207703 1.4559473-.6894531 2.1875-.016969.1807744-.0133293.3586758-.0019531.5332032-.00708.078624-.010999.157397-.011719.2363281 0 .3216121.06468.625957.1601562.9160156-1.2650574.5642325-2.3364042 1.4850695-3.0722656 2.6445315-.1810603.236758-.3410751.483545-.4570312.748047-.1822119.415634-.3173554.845821-.4199219 1.310547-.068248.275755-.1256893.554232-.1601563.841796-.00307.0256.00501.03097.017578.02734-.013155.110763-.030783.216029-.041016.332031-.032805.371885-.036745.525389-.011719.525391l3.984376-4.374996-1.03125 3.455078c.00607.0061.1375376-.04757.2929688-.11914.9549601-.439703 2.1451298-1.206465 3.1972648-1.332032.36284-.0433 1.621735-.04746 2-.0078.37305.03909.729972.199432 1.097657.380859a5 5 0 0 1 3.443359-1.376965 5 5 0 0 1 .140625.0078c-.01597-.05208-.04136-.111494-.08594-.189453-.09589-.254803-.237999-.510365-.451172-.798828-.790588-.868757-1.718119-1.590739-2.765622-2.0703002.096341-.2912394.162109-.5967946.162109-.9199219-.000026-.075507-.0021-.1512747-.0078-.2265625.0026-.075259.0098-.1505538.0059-.2246094-.053174-1.0171424-.647772-1.7149862-1.544975-2.1738281-.475007-.2429255-1.201657-.3564852-1.675781-.3574219-.591493-.001166-1.040993-.50973-1.330078-.9257812-.046275-.0666007-.095586-.1210944-.109375-.1210938zm7.662109 9c-2.2091 0-4 1.7909-4 4s1.7909 4 4 4 4-1.7909 4-4-1.7909-4-4-4zm-4.644531.990234c-.142321-.01491-1.677283-.0061-1.777344.0059-.664601.07932-1.8290209.755645-2.8984371 1.248047-.088747.04086-.1700516.07725-.2441406.107421-.037045.01508-.068655.0278-.1191407.04492-.025243.0086-.0507.01801-.1171874.0332-.033244.0076-.072608.01784-.171875.02344-.049633.0028-.2280842-.01164-.2285157-.01172-.0002157-.00004-.2205474-.06634-.2207031-.06641-.0001557-.000066-.3182645-.214748-.3183594-.214844a1.0001 1.0001 0 0 1 -.2636718-.472688l-1.2402344 1.361328a1.0001 1.0001 0 0 1 -.6660156.324219 6.9999312 6.9999312 0 0 0 1.703125 3.626953h7.2148428a5 5 0 0 1 -1.007812-3 5 5 0 0 1 .863281-2.806641c-.212687-.105355-.393279-.191123-.507812-.203125zm4.644531.009766a3 3 0 0 1 3 3h-1a2 2 0 0 0 -2-2zm-8.9999996 2a1 1 0 0 1 1 1 1 1 0 0 1 -1 1 1 1 0 0 1 -1-1 1 1 0 0 1 1-1zm5.9999996 1h1a2 2 0 0 0 2 2v1a3 3 0 0 1 -3-3z" fill="#fff"/>
</svg>

<svg xmlns="http://www.w3.org/2000/svg" width="24" height="24" version="1.1">
 <defs>
  <style id="current-color-scheme" type="text/css">
   .ColorScheme-Text { color:#ffffff; } .ColorScheme-Highlight { color:#5294e2; }
  </style>
 </defs>
 <path style="fill:currentColor" class="ColorScheme-Text" d="M 10.337491,4 C 10.291351,4 9.9894909,4.5097587 9.7027254,5.0722656 9.2829257,5.8957293 9.0819551,6.5282129 9.0132723,7.2597656 8.9963033,7.44054 8.999943,7.6184414 9.0113192,7.7929688 c -0.00708,0.078624 -0.010999,0.157397 -0.011719,0.2363281 0,0.3216121 0.06468,0.625957 0.1601562,0.9160156 C 7.894699,9.509545 6.8233522,10.430382 6.0874908,11.589844 c -0.1810603,0.236758 -0.3410751,0.483545 -0.4570312,0.748047 -0.1822119,0.415634 -0.3173554,0.845821 -0.4199219,1.310547 -0.068248,0.275755 -0.1256893,0.554232 -0.1601563,0.841796 -0.00307,0.0256 0.00501,0.03097 0.017578,0.02734 -0.013155,0.110763 -0.030783,0.216029 -0.041016,0.332031 -0.032805,0.371885 -0.036745,0.525389 -0.011719,0.525391 L 8.9996004,11 l -1.03125,3.455078 c 0.00607,0.0061 0.1375376,-0.04757 0.2929688,-0.11914 0.9549601,-0.439703 2.1451298,-1.206465 3.1972648,-1.332032 0.36284,-0.0433 1.621735,-0.04746 2,-0.0078 0.37305,0.03909 0.729972,0.199432 1.097657,0.380859 A 5,5 0 0 1 17.9996,12 a 5,5 0 0 1 0.140625,0.0078 c -0.01597,-0.05208 -0.04136,-0.111494 -0.08594,-0.189453 -0.09589,-0.254803 -0.237999,-0.510365 -0.451172,-0.798828 C 16.812525,10.150762 15.884994,9.42878 14.837491,8.9492188 14.933832,8.6579794 14.9996,8.3524242 14.9996,8.0292969 14.999574,7.9537899 14.9975,7.8780222 14.9918,7.8027344 14.9944,7.7274754 15.0016,7.6521806 14.9977,7.578125 14.944526,6.5609826 14.349928,5.8631388 13.452725,5.4042969 12.977718,5.1613714 12.251068,5.0478117 11.776944,5.046875 11.185451,5.045709 10.735951,4.537145 10.446866,4.1210938 10.400591,4.0544931 10.35128,3.9999994 10.337491,4 Z m 7.662109,9 c -2.2091,0 -4,1.7909 -4,4 0,2.2091 1.7909,4 4,4 2.2091,0 4,-1.7909 4,-4 0,-2.2091 -1.7909,-4 -4,-4 z m -4.644531,0.990234 c -0.142321,-0.01491 -1.677283,-0.0061 -1.777344,0.0059 -0.664601,0.07932 -1.8290209,0.755645 -2.8984371,1.248047 -0.088747,0.04086 -0.1700516,0.07725 -0.2441406,0.107421 -0.037045,0.01508 -0.068655,0.0278 -0.1191407,0.04492 -0.025243,0.0086 -0.0507,0.01801 -0.1171874,0.0332 -0.033244,0.0076 -0.072608,0.01784 -0.171875,0.02344 -0.049633,0.0028 -0.2280842,-0.01164 -0.2285157,-0.01172 -2.157e-4,-4e-5 -0.2205474,-0.06634 -0.2207031,-0.06641 -1.557e-4,-6.6e-5 -0.3182645,-0.214748 -0.3183594,-0.214844 A 1.0001,1.0001 0 0 1 6.9956942,14.6875 L 5.7554598,16.048828 A 1.0001,1.0001 0 0 1 5.0894442,16.373047 6.9999312,6.9999312 0 0 0 6.7925692,20 l 7.2148428,0 A 5,5 0 0 1 12.9996,17 5,5 0 0 1 13.862881,14.193359 C 13.650194,14.088004 13.469602,14.002236 13.355069,13.990234 Z M 17.9996,14 a 3,3 0 0 1 3,3 l -1,0 a 2,2 0 0 0 -2,-2 l 0,-1 z m -8.9999996,2 a 1,1 0 0 1 1,1 1,1 0 0 1 -1,1 1,1 0 0 1 -1,-1 1,1 0 0 1 1,-1 z m 5.9999996,1 1,0 a 2,2 0 0 0 2,2 l 0,1 a 3,3 0 0 1 -3,-3 z"/>
</svg>
